X: 1
T: Ki Hivshilu Eshkolot [B]
O: Israel
D: Moshiko "Israeli Folk Dance Party"
M: 2/4
L: 1/8
K: Bphr^d
"A"|: "B"ff fe | de f2 :|\
"B"|: "B"BB Be | "(Am)"dc "B"B2 :|\
"C"|: "B"BB BB | B2 "Am"A2 | "B"BB "(Am)"ce | "Am"dc "B"B2 :|
"D"|: "B"ff "Am"ee | "B"dd "Am"c/B/A | "B"Bc "(Am)"ed | "Am"e2 e2 \
   |  "B"ff "Am"ee | "B"dd "Am"c/B/A | "B"Bc "(Am)"ed | "Am"c2 "B"B2 :|
